public/icons/nex.svg

<?xml version="1.0" encoding="utf-8"?>
<!-- Generator: Adobe Illustrator 23.0.4, SVG Export Plug-In . SVG Version: 6.00 Build 0)  -->
<svg version="1.1" id="nex" xmlns="http://www.w3.org/2000/svg" xmlns:xlink="http://www.w3.org/1999/xlink" x="0px" y="0px"
	 viewBox="0 0 500 500" style="enable-background:new 0 0 500 500;" xml:space="preserve">
<style type="text/css">
	.st0{fill:#0B69FF;}
	.st1{fill:#0048D8;}
	.st2{fill:#FFFFFF;}
</style>
<circle class="st0" cx="250.5" cy="250.3" r="245.8"/>
<path class="st1" d="M320.3,198.8h-85c-6.2,0-11-5.6-9.9-11.7l5.8-34.4c1.9-11.1,11.5-19.2,22.7-19.2h79.3c6.8,0,12,6,11.1,12.7
	l-5,36C338.1,191.7,330,198.8,320.3,198.8z"/>
<path class="st1" d="M319.7,380.1H211c-6.2,0-11-5.6-9.9-11.7l5.8-34.4c1.9-11.1,11.5-19.2,22.7-19.2h103.1c6.8,0,12,6,11.1,12.7
	l-5,36C337.5,373,329.4,380.1,319.7,380.1z"/>
<path class="st1" d="M278.7,290.1H133.3c-6.2,0-11-5.6-9.9-11.7l5.8-34.4c1.9-11.1,11.5-19.2,22.7-19.2h139.7c6.8,0,12,6,11.1,12.7
	l-5,36C296.5,283,288.4,290.1,278.7,290.1z"/>
<path class="st2" d="M306.7,184.5h-85c-6.2,0-11-5.6-9.9-11.7l5.8-34.4c1.9-11.1,11.5-19.2,22.7-19.2h79.3c6.8,0,12,6,11.1,12.7
	l-5,36C324.5,177.4,316.3,184.5,306.7,184.5z"/>
<path class="st2" d="M306.1,365.9H197.3c-6.2,0-11-5.6-9.9-11.7l5.8-34.4c1.9-11.1,11.5-19.2,22.7-19.2h103.1c6.8,0,12,6,11.1,12.7
	l-5,36C323.9,358.8,315.7,365.9,306.1,365.9z"/>
<path class="st2" d="M265.1,275.8H119.7c-6.2,0-11-5.6-9.9-11.7l5.8-34.4c1.9-11.1,11.5-19.2,22.7-19.2h139.7c6.8,0,12,6,11.1,12.7
	l-5,36C282.9,268.7,274.7,275.8,265.1,275.8z"/>
</svg>

<?xml version="1.0" encoding="utf-8"?>
<!-- Generator: Adobe Illustrator 24.2.0, SVG Export Plug-In . SVG Version: 6.00 Build 0)  -->
<svg version="1.1" id="nex" xmlns="http://www.w3.org/2000/svg" xmlns:xlink="http://www.w3.org/1999/xlink" x="0px" y="0px"
	 viewBox="0 0 500 500" style="enable-background:new 0 0 500 500;" xml:space="preserve">
<path d="M250.5,4.5C114.7,4.5,4.7,114.5,4.7,250.3s110,245.8,245.8,245.8s245.8-110,245.8-245.8S386.3,4.5,250.5,4.5z M109.8,264.1
	l5.8-34.4c1.9-11.1,11.5-19.2,22.7-19.2H278c6.8,0,12,6,11.1,12.7l-5,36c-1.2,9.5-9.4,16.6-19,16.6H119.7
	C113.5,275.8,108.7,270.2,109.8,264.1z M330.1,313.3l-5,36c-1.2,9.5-9.4,16.6-19,16.6H197.3c-6.2,0-11-5.6-9.9-11.7l5.8-34.4
	c1.9-11.1,11.5-19.2,22.7-19.2H319C325.8,300.6,331,306.6,330.1,313.3z M330.7,131.9l-5,36c-1.2,9.5-9.4,16.6-19,16.6h-85
	c-6.2,0-11-5.6-9.9-11.7l5.8-34.4c1.9-11.1,11.5-19.2,22.7-19.2h79.3C326.4,119.2,331.6,125.2,330.7,131.9z"/>
</svg>
